X:944056
M:4/4
L:1/8
Q:1/4=120
K:Abmaj
V:M name="Melody" sname="Melody" " " " " -1 
%%MIDI program 110
%%MIDI vol 70
| Z | Z | Z | Z | $
[| Z | Z | Z | Z | Z | Z | Z | Z |]
A2 e2 e2 dc | dc B2 B2 AB | c2 Bc d2 cA | c2 B2 B2 z2 | A2 e2 e2 dc | dc B2 B2 AB | c2 Bc d2 cB | e4 z4 |]
[K:Gmaj]d2 a2 a2 gf | g f e2 e2 de | f2 e f g2 f d | f2 e6 | d2 a2 a2 gf | g f e2 e2 de | f2 e f g2 f d | c8 |
[K:Abmaj]A2 e2 e2 dc | dc B2 B2 AB | c2 Bc d2 cA | c2 B2 B2 z2 | A2 e2 e2 dc | dc B2 B2 AB | c2 Bc d2 cB | A4 z4 |]


